Newaita/actions/scalable/document-edit-sign.svg

<?xml version="1.0" encoding="UTF-8"?>
<svg xmlns="http://www.w3.org/2000/svg" xmlns:xlink="http://www.w3.org/1999/xlink" width="512pt" height="512pt" viewBox="0 0 512 512" version="1.1">
<g id="surface1">
<path style=" stroke:none;fill-rule:nonzero;fill:rgb(25.882354%,25.882354%,25.882354%);fill-opacity:1;" d="M 254.023438 25.167969 C 254.019531 25.167969 254.015625 25.167969 254.007812 25.167969 L 105.851562 25.167969 C 82.394531 25.167969 63.515625 44.050781 63.515625 67.507812 L 63.515625 448.542969 C 63.515625 471.996094 82.394531 490.878906 105.851562 490.878906 L 264.609375 490.878906 L 264.609375 459.125 L 116.433594 459.125 C 104.707031 459.125 95.265625 449.6875 95.265625 437.957031 L 95.265625 78.089844 C 95.265625 66.363281 104.707031 56.921875 116.433594 56.921875 L 253.8125 56.921875 L 253.8125 171.316406 C 253.8125 194.773438 272.695312 213.65625 296.148438 213.65625 L 412.789062 213.65625 L 412.789062 215.6875 C 412.792969 215.757812 412.792969 215.832031 412.796875 215.902344 L 412.796875 310.945312 L 444.550781 310.945312 L 444.550781 205.101562 L 444.542969 205.101562 L 444.542969 194.519531 C 444.542969 190.308594 442.867188 186.269531 439.890625 183.292969 L 286.417969 29.820312 C 283.441406 26.839844 279.402344 25.167969 275.191406 25.167969 Z M 285.5625 73.867188 L 393.597656 181.902344 L 306.734375 181.902344 C 295.003906 181.902344 285.5625 172.460938 285.5625 160.734375 Z M 285.5625 73.867188 "/>
<path style=" stroke:none;fill-rule:nonzero;fill:rgb(25.882354%,25.882354%,25.882354%);fill-opacity:1;" d="M 419.742188 341.195312 C 407.304688 328.757812 387.277344 328.757812 374.835938 341.195312 L 299.992188 416.039062 L 359.867188 475.910156 L 382.320312 453.460938 L 434.710938 401.070312 C 447.148438 388.628906 447.148438 368.601562 434.710938 356.164062 Z M 419.742188 341.195312 "/>
<path style=" stroke:none;fill-rule:evenodd;fill:rgb(14.901961%,65.098041%,60.392159%);fill-opacity:1;" d="M 292.507812 423.523438 L 352.382812 483.394531 L 285.023438 490.878906 Z M 292.507812 423.523438 "/>
</g>
</svg>

<svg xmlns="http://www.w3.org/2000/svg" width="512pt" height="512pt" viewBox="0 0 512 512"><path d="M254.023 25.168H105.852c-23.457 0-42.336 18.883-42.336 42.34v381.035c0 23.453 18.879 42.336 42.336 42.336h158.757v-31.754H116.434a21.12 21.12 0 0 1-21.168-21.168V78.09a21.122 21.122 0 0 1 21.168-21.168h137.379v114.394c0 23.457 18.882 42.34 42.335 42.34H412.79v2.031c.004.07.004.145.008.215v95.043h31.754V205.102h-.008V194.52c0-4.211-1.676-8.25-4.652-11.227L286.418 29.82a15.864 15.864 0 0 0-11.227-4.652zm31.54 48.7l108.035 108.034h-86.864a21.123 21.123 0 0 1-21.171-21.168zm0 0" fill="#424242"/><path d="M419.742 341.195c-12.437-12.437-32.465-12.437-44.906 0l-74.844 74.844 59.875 59.871 22.453-22.45 52.39-52.39c12.438-12.441 12.438-32.468 0-44.906zm0 0" fill="#424242"/><path d="M292.508 423.523l59.875 59.872-67.36 7.484zm0 0" fill-rule="evenodd" fill="#26a69a"/></svg>
